packages/blockchain-info-components/src/Images/img/cloud_check.svg

<svg fill="none" height="88" viewBox="0 0 102 88" width="102" xmlns="http://www.w3.org/2000/svg" xmlns:xlink="http://www.w3.org/1999/xlink"><clipPath id="a"><path d="m62 0h40v40h-40z"/></clipPath><path d="m73.05 46.12c-2.04-10.35-11.13-18.12-22.05-18.12-8.67 0-16.2 4.92-19.95 12.12-9.03.96-16.05 8.61-16.05 17.88 0 9.93 8.07 18 18 18h39c8.28 0 15-6.72 15-15 0-7.92-6.15-14.34-13.95-14.88zm-16.05 8.88v12h-12v-12h-9l15-15 15 15z" fill="#0c6cf2"/><g clip-path="url(#a)"><circle cx="82" cy="20" fill="#fff" r="20"/><path clip-rule="evenodd" d="m82 36c8.8366 0 16-7.1634 16-16s-7.1634-16-16-16-16 7.1634-16 16 7.1634 16 16 16zm-9.7909-15.1242 2.8285-2.8284 4 4 10.5049-10.5049 2.8284 2.8284-13.3333 13.3333z" fill="#17cf73" fill-rule="evenodd"/></g></svg>

<svg width="102" height="88" viewBox="0 0 102 88" fill="none" xmlns="http://www.w3.org/2000/svg">
<path d="M73.05 46.12C71.01 35.77 61.92 28 51 28C42.33 28 34.8 32.92 31.05 40.12C22.02 41.08 15 48.73 15 58C15 67.93 23.07 76 33 76H72C80.28 76 87 69.28 87 61C87 53.08 80.85 46.66 73.05 46.12ZM57 55V67H45V55H36L51 40L66 55H57Z" fill="#0C6CF2"/>
<g clip-path="url(#clip0)">
<circle cx="82" cy="20" r="20" fill="white"/>
<path fill-rule="evenodd" clip-rule="evenodd" d="M82 36C90.8366 36 98 28.8366 98 20C98 11.1634 90.8366 4 82 4C73.1634 4 66 11.1634 66 20C66 28.8366 73.1634 36 82 36ZM72.2091 20.8758L75.0376 18.0474L79.0376 22.0474L89.5425 11.5425L92.3709 14.3709L79.0376 27.7042L72.2091 20.8758Z" fill="#17CF73"/>
</g>
<defs>
<clipPath id="clip0">
<rect width="40" height="40" fill="white" transform="translate(62)"/>
</clipPath>
</defs>
</svg>
